assets/images/icons/phone_icon.svg

<svg fill="none" height="56" viewBox="0 0 56 56" width="56" xmlns="http://www.w3.org/2000/svg"><g fill="#000"><path d="m25.0868 2.5491c.0912 0 .1652-.07395.1652-.16517 0-.09123-.074-.16518-.1652-.16518s-.1652.07395-.1652.16518c0 .09122.074.16517.1652.16517z"/><path d="m25.5697 2.5491c.0912 0 .1652-.07395.1652-.16517 0-.09123-.074-.16518-.1652-.16518s-.1652.07395-.1652.16518c0 .09122.074.16517.1652.16517z"/><path d="m26.0516 2.5491c.0913 0 .1652-.07395.1652-.16517 0-.09123-.0739-.16518-.1652-.16518-.0912 0-.1651.07395-.1651.16518 0 .09122.0739.16517.1651.16517z"/><path d="m26.5336 2.5491c.0912 0 .1652-.07395.1652-.16517 0-.09123-.074-.16518-.1652-.16518s-.1652.07395-.1652.16518c0 .09122.074.16517.1652.16517z"/><path d="m27.0163 2.5491c.0912 0 .1651-.07395.1651-.16517 0-.09123-.0739-.16518-.1651-.16518-.0913 0-.1652.07395-.1652.16518 0 .09122.0739.16517.1652.16517z"/><path d="m27.4992 2.5491c.0912 0 .1651-.07395.1651-.16517 0-.09123-.0739-.16518-.1651-.16518-.0913 0-.1652.07395-.1652.16518 0 .09122.0739.16517.1652.16517z"/><path d="m27.9811 2.5491c.0912 0 .1652-.07395.1652-.16517 0-.09123-.074-.16518-.1652-.16518s-.1652.07395-.1652.16518c0 .09122.074.16517.1652.16517z"/><path d="m28.463 2.5491c.0912 0 .1652-.07395.1652-.16517 0-.09123-.074-.16518-.1652-.16518s-.1651.07395-.1651.16518c0 .09122.0739.16517.1651.16517z"/><path d="m28.945 2.5491c.0912 0 .1651-.07395.1651-.16517 0-.09123-.0739-.16518-.1651-.16518-.0913 0-.1652.07395-.1652.16518 0 .09122.0739.16517.1652.16517z"/><path d="m29.4298 2.5491c.0912 0 .1652-.07395.1652-.16517 0-.09123-.074-.16518-.1652-.16518s-.1652.07395-.1652.16518c0 .09122.074.16517.1652.16517z"/><path d="m29.9118 2.5491c.0912 0 .1651-.07395.1651-.16517 0-.09123-.0739-.16518-.1651-.16518-.0913 0-.1652.07395-.1652.16518 0 .09122.0739.16517.1652.16517z"/><path d="m30.3937 2.5491c.0912 0 .1652-.07395.1652-.16517 0-.09123-.074-.16518-.1652-.16518s-.1652.07395-.1652.16518c0 .09122.074.16517.1652.16517z"/><path d="m30.8756 2.5491c.0912 0 .1652-.07395.1652-.16517 0-.09123-.074-.16518-.1652-.16518s-.1652.07395-.1652.16518c0 .09122.074.16517.1652.16517z"/><path d="m31.3585 2.5491c.0913 0 .1652-.07395.1652-.16517 0-.09123-.0739-.16518-.1652-.16518-.0912 0-.1651.07395-.1651.16518 0 .09122.0739.16517.1651.16517z"/><path d="m40.4115 0h-24.8222c-2.0064 0-3.632 1.62573-3.632 3.632v48.7359c0 2.0063 1.6257 3.632 3.632 3.632h24.8212c2.0064 0 3.632-1.6258 3.632-3.632v-48.7359c.0011-2.00627-1.6247-3.632-3.631-3.632zm-2.5394 2.15684c.2213 0 .4012.17999.4012.40121 0 .22226-.1809.40122-.4012.40122-.2222 0-.4012-.17999-.4012-.40122-.001-.22122.179-.40121.4012-.40121zm-14.1681-.34629h8.9704c.3177 0 .5733.25671.5733.57235 0 .31667-.2556.57236-.5733.57236h-8.9704c-.3177 0-.5734-.25671-.5734-.57236.0011-.31554.2557-.57235.5734-.57235zm-3.6595 51.80055h-.8832c-.059 0-.1062-.0482-.1062-.1072 0-.0579.0472-.1072.1062-.1072h.8832c.0599 0 .1071.0493.1071.1072-.001.059-.0482.1072-.1071.1072zm0-.4308h-.8832c-.059 0-.1062-.0472-.1062-.1062s.0472-.1072.1062-.1072h.8832c.0599 0 .1071.0482.1071.1072-.001.059-.0482.1062-.1071.1062zm.7435.2803c0 .1269-.1024.2301-.2292.2301-.1269 0-.2302-.1032-.2302-.2301v-.7582h-1.4526v.7582c0 .1269-.1022.2301-.2291.2301s-.2301-.1032-.2301-.2301v-.9875c0-.1268.1032-.2301.2301-.2301h1.9119c.1268 0 .2292.1033.2292.2301zm10.0876-.0708c0 .5015-.4071.9077-.9087.9077h-3.9723c-.5027 0-.9088-.4062-.9088-.9077v-.7947c0-.5016.4061-.9077.9088-.9077h3.9723c.5016 0 .9087.4061.9087.9077zm5.9295.3442h-.721c-.1268 0-.2291-.1032-.2291-.2301 0-.1268.1022-.2292.2291-.2292h.721c.1554 0 .2812-.121.2812-.2694 0-.1486-.1259-.2685-.2812-.2685h-.6079c-.0226.0315-.0511.0472-.1022.0511-.0127.0068-.0344-.0029-.0501-.0098l-.3748-.1584c-.0452-.0197-.0757-.0639-.0757-.1132 0-.0491.0296-.0944.0748-.1131l.3748-.1583c.0451-.0196.0993-.0088.1347.0266.005.0049.0099.0098.0138.0157h.6128c.4082 0 .7395.3275.7395.7288-.0002.4013-.3315.7278-.7397.7278zm4.8161-3.1825h-27.5456v-44.95149h27.5456z"/></g></svg>

<svg width="56" height="56" viewBox="0 0 56 56" fill="none" xmlns="http://www.w3.org/2000/svg">
<path d="M25.0868 2.5491C25.178 2.5491 25.252 2.47515 25.252 2.38393C25.252 2.2927 25.178 2.21875 25.0868 2.21875C24.9956 2.21875 24.9216 2.2927 24.9216 2.38393C24.9216 2.47515 24.9956 2.5491 25.0868 2.5491Z" fill="black"/>
<path d="M25.5697 2.5491C25.6609 2.5491 25.7349 2.47515 25.7349 2.38393C25.7349 2.2927 25.6609 2.21875 25.5697 2.21875C25.4785 2.21875 25.4045 2.2927 25.4045 2.38393C25.4045 2.47515 25.4785 2.5491 25.5697 2.5491Z" fill="black"/>
<path d="M26.0516 2.5491C26.1429 2.5491 26.2168 2.47515 26.2168 2.38393C26.2168 2.2927 26.1429 2.21875 26.0516 2.21875C25.9604 2.21875 25.8865 2.2927 25.8865 2.38393C25.8865 2.47515 25.9604 2.5491 26.0516 2.5491Z" fill="black"/>
<path d="M26.5336 2.5491C26.6248 2.5491 26.6988 2.47515 26.6988 2.38393C26.6988 2.2927 26.6248 2.21875 26.5336 2.21875C26.4424 2.21875 26.3684 2.2927 26.3684 2.38393C26.3684 2.47515 26.4424 2.5491 26.5336 2.5491Z" fill="black"/>
<path d="M27.0163 2.5491C27.1075 2.5491 27.1814 2.47515 27.1814 2.38393C27.1814 2.2927 27.1075 2.21875 27.0163 2.21875C26.925 2.21875 26.8511 2.2927 26.8511 2.38393C26.8511 2.47515 26.925 2.5491 27.0163 2.5491Z" fill="black"/>
<path d="M27.4992 2.5491C27.5904 2.5491 27.6643 2.47515 27.6643 2.38393C27.6643 2.2927 27.5904 2.21875 27.4992 2.21875C27.4079 2.21875 27.334 2.2927 27.334 2.38393C27.334 2.47515 27.4079 2.5491 27.4992 2.5491Z" fill="black"/>
<path d="M27.9811 2.5491C28.0723 2.5491 28.1463 2.47515 28.1463 2.38393C28.1463 2.2927 28.0723 2.21875 27.9811 2.21875C27.8899 2.21875 27.8159 2.2927 27.8159 2.38393C27.8159 2.47515 27.8899 2.5491 27.9811 2.5491Z" fill="black"/>
<path d="M28.463 2.5491C28.5542 2.5491 28.6282 2.47515 28.6282 2.38393C28.6282 2.2927 28.5542 2.21875 28.463 2.21875C28.3718 2.21875 28.2979 2.2927 28.2979 2.38393C28.2979 2.47515 28.3718 2.5491 28.463 2.5491Z" fill="black"/>
<path d="M28.945 2.5491C29.0362 2.5491 29.1101 2.47515 29.1101 2.38393C29.1101 2.2927 29.0362 2.21875 28.945 2.21875C28.8537 2.21875 28.7798 2.2927 28.7798 2.38393C28.7798 2.47515 28.8537 2.5491 28.945 2.5491Z" fill="black"/>
<path d="M29.4298 2.5491C29.521 2.5491 29.595 2.47515 29.595 2.38393C29.595 2.2927 29.521 2.21875 29.4298 2.21875C29.3386 2.21875 29.2646 2.2927 29.2646 2.38393C29.2646 2.47515 29.3386 2.5491 29.4298 2.5491Z" fill="black"/>
<path d="M29.9118 2.5491C30.003 2.5491 30.0769 2.47515 30.0769 2.38393C30.0769 2.2927 30.003 2.21875 29.9118 2.21875C29.8205 2.21875 29.7466 2.2927 29.7466 2.38393C29.7466 2.47515 29.8205 2.5491 29.9118 2.5491Z" fill="black"/>
<path d="M30.3937 2.5491C30.4849 2.5491 30.5589 2.47515 30.5589 2.38393C30.5589 2.2927 30.4849 2.21875 30.3937 2.21875C30.3025 2.21875 30.2285 2.2927 30.2285 2.38393C30.2285 2.47515 30.3025 2.5491 30.3937 2.5491Z" fill="black"/>
<path d="M30.8756 2.5491C30.9668 2.5491 31.0408 2.47515 31.0408 2.38393C31.0408 2.2927 30.9668 2.21875 30.8756 2.21875C30.7844 2.21875 30.7104 2.2927 30.7104 2.38393C30.7104 2.47515 30.7844 2.5491 30.8756 2.5491Z" fill="black"/>
<path d="M31.3585 2.5491C31.4498 2.5491 31.5237 2.47515 31.5237 2.38393C31.5237 2.2927 31.4498 2.21875 31.3585 2.21875C31.2673 2.21875 31.1934 2.2927 31.1934 2.38393C31.1934 2.47515 31.2673 2.5491 31.3585 2.5491Z" fill="black"/>
<path d="M40.4115 0H15.5893C13.5829 0 11.9573 1.62573 11.9573 3.632V52.3679C11.9573 54.3742 13.583 55.9999 15.5893 55.9999H40.4105C42.4169 55.9999 44.0425 54.3741 44.0425 52.3679V3.632C44.0436 1.62573 42.4178 0 40.4115 0ZM37.8721 2.15684C38.0934 2.15684 38.2733 2.33683 38.2733 2.55805C38.2733 2.78031 38.0924 2.95927 37.8721 2.95927C37.6499 2.95927 37.4709 2.77928 37.4709 2.55805C37.4699 2.33683 37.6499 2.15684 37.8721 2.15684ZM23.704 1.81055H32.6744C32.9921 1.81055 33.2477 2.06726 33.2477 2.3829C33.2477 2.69957 32.9921 2.95526 32.6744 2.95526H23.704C23.3863 2.95526 23.1306 2.69855 23.1306 2.3829C23.1317 2.06736 23.3863 1.81055 23.704 1.81055ZM20.0445 53.6111H19.1613C19.1023 53.6111 19.0551 53.5629 19.0551 53.5039C19.0551 53.446 19.1023 53.3967 19.1613 53.3967H20.0445C20.1044 53.3967 20.1516 53.446 20.1516 53.5039C20.1506 53.5629 20.1034 53.6111 20.0445 53.6111ZM20.0445 53.1803H19.1613C19.1023 53.1803 19.0551 53.1331 19.0551 53.0741C19.0551 53.0151 19.1023 52.9669 19.1613 52.9669H20.0445C20.1044 52.9669 20.1516 53.0151 20.1516 53.0741C20.1506 53.1331 20.1034 53.1803 20.0445 53.1803ZM20.788 53.4606C20.788 53.5875 20.6856 53.6907 20.5588 53.6907C20.4319 53.6907 20.3286 53.5875 20.3286 53.4606V52.7024H18.876V53.4606C18.876 53.5875 18.7738 53.6907 18.6469 53.6907C18.52 53.6907 18.4168 53.5875 18.4168 53.4606V52.4731C18.4168 52.3463 18.52 52.243 18.6469 52.243H20.5588C20.6856 52.243 20.788 52.3463 20.788 52.4731V53.4606ZM30.8756 53.3898C30.8756 53.8913 30.4685 54.2975 29.9669 54.2975H25.9946C25.4919 54.2975 25.0858 53.8913 25.0858 53.3898V52.5951C25.0858 52.0935 25.4919 51.6874 25.9946 51.6874H29.9669C30.4685 51.6874 30.8756 52.0935 30.8756 52.5951V53.3898ZM36.8051 53.734H36.0841C35.9573 53.734 35.855 53.6308 35.855 53.5039C35.855 53.3771 35.9572 53.2747 36.0841 53.2747H36.8051C36.9605 53.2747 37.0863 53.1537 37.0863 53.0053C37.0863 52.8567 36.9604 52.7368 36.8051 52.7368H36.1972C36.1746 52.7683 36.1461 52.784 36.095 52.7879C36.0823 52.7947 36.0606 52.785 36.0449 52.7781L35.6701 52.6197C35.6249 52.6 35.5944 52.5558 35.5944 52.5065C35.5944 52.4574 35.624 52.4121 35.6692 52.3934L36.044 52.2351C36.0891 52.2155 36.1433 52.2263 36.1787 52.2617C36.1837 52.2666 36.1886 52.2715 36.1925 52.2774H36.8053C37.2135 52.2774 37.5448 52.6049 37.5448 53.0062C37.5446 53.4075 37.2133 53.734 36.8051 53.734ZM41.6212 50.5515H14.0756V5.60001H41.6212V50.5515V50.5515Z" fill="black"/>
</svg>
